X:1
T:Must I part, O my jewel? - Kirbye
T:James Gibb editions
T:#
%%score { 1 | 2 } 3 { 4 | 5 } 6
L:1/8
Q:1/4=108
M:4/4
K:C
V:1 treble nm="Soprano I" snm="S"
V:2 treble 
V:3 treble nm="Alto" snm="A"
V:4 treble-8 nm="Tenor I" snm="T"
V:5 treble-8 
V:6 bass nm="Bass" snm="B"
V:1
 A6 B2 | ^c2 d"^Must I part, O my jewel"e f4 | e4 z4 | A8 |"^George Kirbye\n(1570 - 1634)" A4 z4 | %5
w: Must I|part, O my jew-|el,|Hap-|less,|
 A6 B2 |[M:4/4] !courtesy!=c4 B4 | z8 | z8 | A6 B2 | ^c2 de f4 | e4 z4 | z4 e4- | e4 d4 | z8 | e8 | %16
w: hap\- *|* less,|||must I|part, O my jew-|el,|hap\-|* less,||hap-|
 e4 z2 B2 | c2 d2 e4- | e2 d2 c2 B2 | A4 B4 | z2 e2 f2 e2 | e8 | e8 | =c8- | c8 | B4 z2 e2 | %26
w: less, from|my fair sun,|* whose beams me|nour- ish,|whose beams me|nour-|ish?|A\-||las, who|
 c2 B2 A4 | ^G8 | z8 | e8- | e8 | A8 | z4 z2 c2 | c2 c2 d4 | e8 | z4 c4- | c4 B4- | B4 A4 | %38
w: now com- fort-|eth,||a\-||las,|or|doth me cher-|ish,|Pain\-|* ed|* with|
 G4 E4- | E4 A4- | A4 A4 | z8 | e8- | e8 | e3 e e2 d2 | e4 e4 | z4 c4- | c4 B3 c | B2 A2 B4 | %49
w: grief so|* cru\-|* el?||O,||if it so must|needs be,|O,|* if it|so must needs|
 B4 c2 c2- | c2 =G2 B4 | B2 B2 c3 B | c2 A2 ^G4- | G2 E2 z4 | z2 A2 e3 d | e2 c2 B4 | ^c8 | %57
w: be, my wick\-|* ed for-|tune, How can she|fur- ther harm|* me,|How can she|fur- ther harm|me?|
 z4 e4- | e4 e3 e | e2 d2 e4 | e4 e2 e2- | e2 c2 d4 | d2 d2 e3 d | e2 c2 B2 B2 | z4 z2 B2 | %65
w: O,|* if it|so must needs|be, my wick\-|* ed for-|tune, How can she|fur- ther harm me,|how|
 c3 B c2[Q:1/4=107] A2 |[Q:1/4=105] ^G2[Q:1/4=103] A2[Q:1/4=102] B2[Q:1/4=100] e2 |[Q:1/4=96] e8 | %68
w: can she fur- ther|harm me, fur- ther|harm|
[Q:1/4=94] !fermata!e8 |] %69
w: me?|
V:2
 z8 | z8 | A6 B2 | ^c2 de f4 | e4 d4- | d4 ^c4 |[M:4/4] z8 | A8 | A8 | z8 | A6 B2 | ^c2 de f4 | %12
w: ||Must I|part, O my jew-|el, Hap\-|* less,||hap-|less,||must I|part, O my jew-|
 e8 | z8 | z4 d4- | d4 c4 | B4 z2 ^G2 | A2 B2 c4- | c2 B2 c2 e2 | d4 e4- | e4 z2 c2 | B2 A2 B4 | %22
w: el,||hap\-||less, from|my fair sun,|* whose beams me|nour- ish,|* whose|beams me nour-|
 ^c8 | z8 | e8- | e4 B4 | z8 | e8- | e8 | B8 | z4 z2 ^c2 | d2 e2 f4 | e6 e2 | f2 e2 g4 | g8 | z8 | %36
w: ish?||A\-|* las,||a\-||las,|who|now com- fort-|eth or|doth me cher-|ish,||
 z4 e4- | e4 d4- | d4 (^c2 B2) | ^c4 d4- | d4 =c4- | c4 B4 | z8 | c8 | B3 c B2 A2 | B4 B4 | %46
w: Pain\-|* ed|* with *|grief so|* cru\-|* el?||O,|if it so must|needs be,|
 z4 e4- | e4 e3 e | e2 d2 e4 | e4 e2 e2- | e2 c2 d4 | d2 d2 e3 d | e2 c2 B2 B2 | z4 z2 B2 | %54
w: O,|* if it|so must needs|be, my wick\-|* ed for-|tune, How can she|fur- ther harm me,|How|
 c3 B c2 A2 | (^G2 A4 G2) | A8 | z4 c4- | c4 B3 c | B2 A2 B4 | B4 c2 c2- | c2 G2 B4 | B2 B2 c3 B | %63
w: can she fur- ther|harm * *|me?|O,|* if it|so must needs|be, my wick\-|* ed for-|tune, How can she|
 c2 A2 ^G4- | G2 E2 z4 | z2 A2 e3 d | e2 c2 (B4- | B2 A2 B4) | !fermata!^c8 |] %69
w: fur- ther harm|* me,|how can she|fur- ther harm||me?|
V:3
 z8 | z8 | z4 A4- | A2 G2 F2 ED | ^C4 D4 | z4 A4- |[M:4/4] A4 ^G4 | z4 E4- | E4 D4 | z4 A4- | %10
w: ||Must|* I part, O, my|jew- el,|Hap\-|* less,|hap\-|* less,|must|
 A2 G2 F2 ED | ^C4 D4 | z4 A4- | A4 A4 | z8 | A8 | ^G4 z2 E2 | E2 =G2 G4- | G2 B2 (A2 ^G2 | %19
w: * I part, O my|Jew- el,|hap\-|* less,||hap-|less, from|my fair sun,|* whose beams *|
 A4) ^G4 | z4 z2 A2 | ^G2 A4 G2 | A8 | A8- | A8 | ^G4 z2 G2 | A2 B2 c4 | B8 | B8- | B8 | %30
w: * me|nour-|ish, me nour-|ish?|A\-||las, who|now com- fort-|eth,|a\-||
 ^c4 z2 A2 | A3 G (FE D2) | E4 z2 A2 | A2 c2 B4 | c8 | z4 A4- | A4 G4- | G4 F4 | E4 (G4- | %39
w: las, who|now com- fort\- * *|eth or|doth me cher-|ish,|Pain\-|* ed|* with|grief so|
 G2 FE F4- | F4) E4- | E4 D4 | z8 | E8 | ^G3 A G2 A2 | ^G4 G4 | z4 E4- | E4 ^G3 A | ^G2 A2 G4 | %49
w: |* cru\-|* el?||O,|if it so must|needs be,|O,|* if it|so must needs|
 ^G4 A2 A2- | A2 E2 G4 | G4 z4 | A4 B3 B | B2 A2 ^G4 | A8 | z8 | z8 | z4 E4- | E4 ^G3 A | %59
w: be, my wick\-|* ed for-|tune,|How can she|fur- ther harm|me?|||O,|* if it|
 ^G2 A2 G4 | ^G4 A2 A2- | A2 E2 G4 | G4 z4 | A4 B3 B | B2 A2 ^G4 | A8 | z2 A2 ^G3 ^F | ^G2 A2 G4 | %68
w: so must needs|be, my wick\-|* ed for-|tune,|How can she|fur- ther harm|me,|how can she|fur- ther harm|
 !fermata!A8 |] %69
w: me?|
V:4
 z4 a4- | a2 g2 f2 ed | ^c4 d4 | z4 d4 | A4 f4- | f4 e4 |[M:4/4][K:treble-8] e8- | e8 | A8- | A8 | %10
w: Must|* I part, O my|jew- el,|Hap-|less, hap\-|* less,|hap\-||less,||
 z4 a4- | a2 g2 f2 ed | ^c2 A2 z4 | A8 | A8 | z4 A4 | B4 z2 B2 | A2 d2 c3 d | e2 g2 e2 e2 | A4 e4 | %20
w: must|* I part, O my|jew- el,|hap-|less,|hap-|less, from|my fair sun, *|* whose beams me|nour- ish,|
 z2 e2 d2 c2 | e8 | e8 | e8- | e8 | e4 z2 B2 | c2 e2 e4 | e8 | ^g8- | g8 | a4 z2 e2 | f2 e2 d4 | %32
w: whose beams me|nour-|ish?|A\-||las, who|now com- fort-|eth,|a\-||las, who|now com- fort-|
 ^c4 z2 =c2 | c2 c2 g4 | g8 | c8 | A4 B4 | ^c4 d4 | e8- | e4 d4 | z8 | g8- | g8 | g8 | e3 A e2 f2 | %45
w: eth or|doth me cher-|ish,|Pain-|ed with|grief so|cru\-|* el?||O,|||if it so must|
 e4 e4 | z4 g4- | g4 e3 e | e2 A2 e4 | e4 e2 e2- | e2 e2 d4 | B4 A4- | A4 e3 d | e2 c2 B4 | %54
w: needs be,|O,|* if it|so must needs|be, my wick\-|* ed for-|tune, How|* can she|fur- ther harm|
 A4 A2 A2 | e8 | e8 | z4 g4- | g4 e3 e | e2 A2 e4 | e4 e2 e2- | e2 e2 d4 | B4 A4- | A4 e3 d | %64
w: me, fur- ther|harm|me?|O,|* if it|so must needs|be, my wick\-|* ed for-|tune, How|* can she|
 e2 c2 B4 | A4 A2 A2 | e8- | e8 | !fermata!e8 |] %69
w: fur- ther harm|me, fur- ther|harm||me?|
V:5
 z8 | z8 | z8 | z8 | z4 d4- | d4 A4 |[M:4/4][K:treble-8] z8 | A6 B2 | ^c2 de f4 | e4 z4 | z4 d4 | %11
w: ||||Hap-|* less,||must I|part, O my jew-|el,|hap-|
 A4 z4 | A6 B2 | ^c2 de f4 | e4 A4- | A4 A4 | z4 z2 E2 | A2 G2 c4- | c2 G2 A2 E2 | F4 E4- | %20
w: less,|must I|part, O my jew-|el, hap\-|* less,|from|my fair sun,|* whose beams me|nour- ish,|
 E4 z2 e2 | e2 c2 B4 | A8 | z4 c4- | c4 A4 | z4 z2 e2 | e3 d cB A2 | B8 | e8- | e8 | A4 z2 A2 | %31
w: * whose|beams me nour-|ish?|A\-|* las,|who|now * * * *|com-|fort-||eth, who|
 d2 ^c2 d4 | A4 z2 e2 | A2 A2 d4 | c8 | A8 | ^F4 G4 | E8- | E4 E4 | A8- | A8 | G8 | c8- | c8 | z8 | %45
w: now com- fort-|eth or|doth me cher-|ish,|Pain-|ed with|grief|* so|cru\-||el?|O,|||
 z8 | c8 | z4 B3 A | B2 d2 B4 | B4 A2 c2- | c2 c2 B4 | G4 z4 | A4 E3 ^F | ^G2 A2 B2 E2 | %54
w: |O,|if it|so must needs|be, my wick\-|* ed for-|tune,|How can she|fur- ther harm me,|
 z2 e2 c3 d | B2 A2 B4 | A8 | =c8 | z4 B3 A | B2 d2 B4 | B4 A2 c2- | c2 c2 B4 | G4 z4 | A4 E3 ^F | %64
w: how can she|fur- ther harm|me?|O,|if it|so must needs|be, my wick\-|* ed for-|tune,|How can she|
 ^G2 A2 B2 E2 | z8 | z2 A2 e3 d | e2 c2 B4 | !fermata!A8 |] %69
w: fur- ther harm me,||how can she|fur- ther harm|me?|
V:6
 z8 | z8 | z8 | z8 | z8 | z4 A,4- |[M:4/4] A,4 E,4 | z4 A,4- | A,2 G,2 F,2 E,D, | ^C,4 D,4 | z8 | %11
w: |||||Hap\-|* less,|must|* I part, O my|jew- el,||
 z4 D,4 | A,,4 A,4- | A,2 G,2 F,2 E,D, | ^C,4 D,4 | A,8 | E,8 | z8 | z8 | z8 | z2 C,2 D,2 A,,2 | %21
w: hap-|less, must|* I part, O my|jew- el,|hap-|less,||||whose beams me|
 E,8 | A,,8 | A,8- | A,8 | E,4 z2 E,2 | A,2 ^G,2 A,4 | E,8 | z8 | z8 | z8 | z8 | z4 z2 A,2 | %33
w: nour-|ish?|A\-||las, who|now com- fort-|eth|||||or|
 F,2 A,2 G,4 | C,8 | z8 | z8 | z8 | z8 | z8 | z8 | z8 | C,8- | C,8 | z8 | z8 | z4 C,4- | %47
w: doth me cher-|ish?||||||||O,||||O,|
 C,4 E,3 A,, | E,2 F,2 E,4 | E,4 A,2 A,2- | A,2 C2 G,4 | G,4 z4 | z8 | E,8 | A,3 =G, A,2 F,2 | %55
w: * if it|so must needs|be, my wick\-|* ed for-|tune,||How|can she fur- ther|
 E,8 | A,,8 | z4 C,4- | C,4 E,3 A,, | E,2 F,2 E,4 | E,4 A,2 A,2- | A,2 C2 G,4 | G,4 z4 | z8 | E,8 | %65
w: harm|me?|O,|* if it|so must needs|be, my wick\-|* ed for-|tune,||how|
 A,3 =G, A,2 F,2 | E,8- | E,8 | !fermata!A,,8 |] %69
w: can she fur- ther|harm||me?|

